X:1
T:Jim's Red Car
L:1/8
M:6/8
I:linebreak $
K:G
V:1 treble 
V:1
 d | ged BAG | EGF GED | DEG BAG | dBG ABd | ged BAG | EGD GED | DEG BdB |$ AFD G3 :| DEG Bcd | %10
 ege dBG | DEG BAG | dBG A2 A | DEG Bcd | ege dBG |$ DEG BdB | AFD G3 || DEG Bcd | ege dBG | %19
 DEG BAG | dBG A2 A | DEG Bcd |$ ege dB/c/d | g2 g agf | gba g3 |] %25
